X:1
T:No, Not One!
T:George Crawford Hugg
T:No, Not One!
T:Public Domain
T:Public Domain
C:George Crawford Hugg
Z:Public Domain
%%score ( 1 2 ) ( 3 4 )
L:1/8
M:4/4
K:G
V:1 treble 
V:2 treble 
V:3 bass 
V:4 bass 
V:1
 [GB]2 [GB]>[GA] G2 [DG]>[DF] | [CE]2 [CG]2 [CE][B,D] z2 | [GB]2 [GB]2 [FA]2 z2 | %3
w: 1.~There’s not a friend like the|ly Je- sus, No,|not one! No,|
w: 2.~No friend like Him is so|and ho- ly, No,|not one! No,|
w: 3.~There’s not an hour that He|not near us, No,|not one! No,|
w: 4.~Did ev- er saint find this|for- sake him? No,|not one! No,|
w: 5.~Was ever a gift like the|ior giv- en? No,|not one! No,|
 [GB]2 [FA]2 G2 z2 | [GB]2 [GB]>[GA] G2 [DG]>[DF] | [CE]2 [CG]2 [CE][B,D] z2 | %6
w: not one! None|else could heal all our soul’s|seas- es, No, not|
w: not one! And|yet no friend is so meek|low- ly, No, not|
w: not one! No|night so dark but His love|cheer us, No, not|
w: not one! Or|sin- ner find that He would|take him? No, not|
w: not one! Will|He re- fuse us a home|heav- en? No, not|
 [GB]2 [GB]2 [FA]2 z2 | [GB]2 [FA]2 G2 z2 ||"^Refrain" [GB]2 [Gd]2 [Gd]2 [Ge]>[Gd] | %9
w: one! No, not|one! * *||
w: one! No, not|one! * *||
w: one! No, not|one! * *||
w: one! No, not|one! * *||
w: one! No, not|one! * *||
 [GB]2 [GB]2 [FA]G z2 | [GB]2 [Gd]2 [Gd]2 [Ge]>[Gd] | [GB]2 [GB]2 [FA]4 | %12
w: |||
w: |||
w: |||
w: |||
w: |||
 [GB]2 [GB]>A G2 [DG]>[DF] | [CE]2 [CG]2 [CE][B,D] z2 | [GB]2 [GB]2 [FA]2 z2 | [GB]2 [FA]2 G4 |] %16
w: ||||
w: ||||
w: ||||
w: ||||
w: ||||
V:2
 x4 G2 x2 | x8 | x8 | x8 | x4 G2 x2 | x8 | x8 | x4 G2 x2 || x8 | x8 | x8 | x8 | x7/2 G/ x4 | x8 | %14
w: low-||||di-||||||||||
w: high||||and||||||||||
w: is||||can||||||||||
w: friend||||not||||||||||
w: Sav-||||in||||||||||
 x8 | x4 G4 |] %16
w: ||
w: ||
w: ||
w: ||
w: ||
V:3
 [G,D]2 [G,D]>[G,C] [G,B,]2 [B,,G,]>[B,,G,] | [C,G,]2 [E,G,]2 G,G, z2 | [G,D]2 [G,D]2 [D,D]2 z2 | %3
w: ~ ~ ~ ~ ~ ~|~ ~ ~ ~|~ ~ ~|
 [G,D]2 [D,C]2 [G,B,]2 z2 | [G,D]2 [G,D]>[G,C] [G,B,]2 [B,,G,]>[B,,G,] | [C,G,]2 [E,G,]2 G,G, z2 | %6
w: ~ ~ ~|~ ~ ~ ~ ~ ~|~ ~ ~ ~|
 [G,D]2 [G,D]2 [D,D]2 z2 | [D,D]2 [D,C]2 [G,B,]2 z2 || [G,D]2 [G,B,]2 [G,B,]2 [G,C]>[G,B,] | %9
w: ~ ~ ~|~ ~ ~|Je- sus knows all a-|
 [G,D]2 [G,D]2 [D,C][G,B,] z2 | [G,D]2 [G,B,]2 [G,B,]2 [G,C]>[G,B,] | [G,D]2 [G,D]2 [D,D]4 | %12
w: bout our strug- gles,|He will guide till the|day is done;|
 [G,D]2 [G,D]>[G,C] [G,B,]2 [B,,G,]>[B,,G,] | [C,G,]2 [E,G,]2 G,G, z2 | [G,D]2 [G,D]2 [D,D]2 z2 | %15
w: There’s not a friend like the|low- ly Je- sus,|one! No, not|
 [D,D]2 [D,C]2 [G,B,]4 |] %16
w: one! * *|
V:4
 x8 | x8 | x8 | x8 | x8 | x8 | x8 | x8 || x8 | x8 | x8 | x8 | x8 | x4 G,G, x2 | x8 | x8 |] %16
w: |||||||||||||No, not|||

